img/icons/project/6.svg

<svg width="55" height="51" viewBox="0 0 55 51" fill="none" xmlns="http://www.w3.org/2000/svg">
<path d="M32.808 23.1591C32.9354 23.2116 33.2633 23.302 33.5556 23.0113L46.1659 10.4753C46.6946 9.9497 46.6537 9.08151 46.0726 8.61355C42.5379 5.76728 38.3115 4.0055 33.7941 3.49409C33.0433 3.40904 32.3843 3.99225 32.3843 4.74335V22.5286C32.3841 22.9404 32.6806 23.1067 32.808 23.1591Z" fill="#343434"/>
<path d="M48.1432 12.5295L16.3016 44.1834C15.764 44.7179 15.8172 45.6032 16.4192 46.0647C20.5729 49.2493 25.6405 50.9842 30.9588 50.9993L31.0166 50.9999C44.246 51.0002 54.9998 40.3097 54.9998 27.1695C54.9998 21.8562 53.2543 16.794 50.0356 12.6464C49.5713 12.0479 48.6808 11.9949 48.1432 12.5295Z" fill="#343434"/>
<path d="M6.13745 39.3517L7.89152 37.608L1.22266 31.041C2.25117 34.0933 3.91098 36.9151 6.13745 39.3517Z" fill="#343434"/>
<path d="M1.35425 15.6792C0.477776 18.1359 0 20.7777 0 23.5271C0 23.8962 0.00851849 24.2638 0.0251851 24.6298L10.5353 34.9796L15.7038 29.8415L1.35425 15.6792Z" fill="#343434"/>
<path d="M22.2125 0C21.1486 0.0666418 20.1042 0.204896 19.0825 0.407215L22.2125 3.51876V0Z" fill="#343434"/>
<path d="M22.2128 8.77554L15.0002 1.60547C13.1026 2.35455 11.3245 3.34037 9.70264 4.52611L22.2128 16.8729V8.77554Z" fill="#343434"/>
<path d="M21.0745 24.5028C21.7312 23.8502 22.1214 23.0044 22.1966 22.0946L6.86478 6.96289C5.3572 8.47816 4.05498 10.1952 3.00146 12.068L18.3475 27.2137L21.0745 24.5028Z" fill="#343434"/>
</svg>

<svg width="55" height="51" fill="none" xmlns="http://www.w3.org/2000/svg"><path d="M32.808 23.16a.666.666 0 0 0 .748-.149l12.61-12.536a1.25 1.25 0 0 0-.093-1.861 23.762 23.762 0 0 0-12.279-5.12 1.263 1.263 0 0 0-1.41 1.25v17.785a.66.66 0 0 0 .424.63zm15.335-10.63L16.302 44.182a1.251 1.251 0 0 0 .117 1.882c4.154 3.184 9.221 4.92 14.54 4.934h.058C44.246 51 55 40.31 55 27.17a23.583 23.583 0 0 0-4.964-14.523 1.268 1.268 0 0 0-1.893-.117zM6.137 39.352l1.755-1.744-6.67-6.567a23.362 23.362 0 0 0 4.915 8.31zM1.354 15.68a23.31 23.31 0 0 0-1.329 8.95l10.51 10.35 5.169-5.138-14.35-14.163zM22.212 0a23.748 23.748 0 0 0-3.13.407l3.13 3.112V0zm.001 8.776L15 1.606a23.758 23.758 0 0 0-5.297 2.92l12.51 12.347V8.776zm-1.138 15.727a3.82 3.82 0 0 0 1.122-2.408L6.865 6.963A23.753 23.753 0 0 0 3 12.068l15.347 15.146 2.727-2.711z" fill="#343434"/></svg>
